assets/img/location.svg

<svg width="22" height="22" viewBox="0 0 22 22" fill="none" xmlns="http://www.w3.org/2000/svg">
<path fill-rule="evenodd" clip-rule="evenodd" d="M11.2297 7.7915C10.3451 7.7915 9.62549 8.51109 9.62549 9.39659C9.62549 10.2812 10.3451 10.9998 11.2297 10.9998C12.1142 10.9998 12.8338 10.2812 12.8338 9.39659C12.8338 8.51109 12.1142 7.7915 11.2297 7.7915ZM11.2297 12.3748C9.58699 12.3748 8.25049 11.0393 8.25049 9.39659C8.25049 7.753 9.58699 6.4165 11.2297 6.4165C12.8723 6.4165 14.2088 7.753 14.2088 9.39659C14.2088 11.0393 12.8723 12.3748 11.2297 12.3748Z" fill="#130F26"/>
<mask id="mask0_1211_1424" style="mask-type:luminance" maskUnits="userSpaceOnUse" x="3" y="1" width="16" height="19">
<path fill-rule="evenodd" clip-rule="evenodd" d="M3.66675 1.83325H18.7913V19.7083H3.66675V1.83325Z" fill="white"/>
</mask>
<g mask="url(#mask0_1211_1424)">
<path fill-rule="evenodd" clip-rule="evenodd" d="M11.2288 3.20825C7.81693 3.20825 5.04126 6.0105 5.04126 9.4535C5.04126 13.8343 10.1966 18.1023 11.2288 18.3296C12.2609 18.1013 17.4163 13.8333 17.4163 9.4535C17.4163 6.0105 14.6406 3.20825 11.2288 3.20825ZM11.2288 19.7083C9.58426 19.7083 3.66626 14.6189 3.66626 9.4535C3.66626 5.2515 7.05884 1.83325 11.2288 1.83325C15.3987 1.83325 18.7913 5.2515 18.7913 9.4535C18.7913 14.6189 12.8733 19.7083 11.2288 19.7083Z" fill="#130F26"/>
</g>
</svg>

<svg xmlns="http://www.w3.org/2000/svg" width="22" height="22" fill="none"><path fill="#130F26" fill-rule="evenodd" d="M11.23 7.792a1.605 1.605 0 1 0 1.604 1.605c0-.886-.72-1.606-1.604-1.606m0 4.583a2.98 2.98 0 0 1-2.98-2.978 2.983 2.983 0 0 1 2.98-2.98 2.983 2.983 0 0 1 2.979 2.98 2.98 2.98 0 0 1-2.98 2.978" clip-rule="evenodd"/><mask id="a" width="16" height="19" x="3" y="1" maskUnits="userSpaceOnUse" style="mask-type:luminance"><path fill="#fff" fill-rule="evenodd" d="M3.667 1.833H18.79v17.875H3.667z" clip-rule="evenodd"/></mask><g mask="url(#a)"><path fill="#130F26" fill-rule="evenodd" d="M11.229 3.208c-3.412 0-6.188 2.803-6.188 6.246 0 4.38 5.156 8.648 6.188 8.876 1.032-.229 6.187-4.497 6.187-8.876 0-3.443-2.775-6.246-6.187-6.246m0 16.5c-1.645 0-7.563-5.09-7.563-10.254 0-4.203 3.393-7.62 7.563-7.62s7.562 3.418 7.562 7.62c0 5.165-5.918 10.254-7.562 10.254" clip-rule="evenodd"/></g></svg>
